X:1
T:Title
%%score { 1 | ( 2 3 ) }
L:1/8
M:4/4
K:F
V:1 treble nm="Grand Piano"
V:2 bass 
V:3 bass 
V:1
 z4 z2[Q:1/4=100] A>B | c2 [CF]2 [DFG]2 [CEA]2 | [B,EG]2 F2 [A,CG]2 [CFA]2 | %3
 [B,FB]2 [CFA]2 [DFG]2 [Fd]2 |[M:2/4] [Ec]4 | [EG]2 [EG]2 |[M:4/4] [_EG]2 [EA]2 [DB]2 [C^FA]2 | %7
 [C^FA]2 G2 [Gd]2 [Gd]2 | [Ac]2 [CF]2 [DFG]2 [CEA]2 |[M:3/4] [A,F]6 |] %10
V:2
 z4 z2 [F,CF]>[F,B,F] | [F,A,F]2 A,,2 B,,2 C,2 | z2 A,2 F,2 _E,2 | D,2 C,2 B,,2 [=B,,G,]2 | %4
[M:2/4] [C,G,]4 | [C,G,]2 [C,G,]2 |[M:4/4] [C,G,]2 [C,G,]2 [D,G,]2 D,2 | z2 B,2 [E,B,]2 [E,B,]2 | %8
 [F,A,]2 A,,2 B,,2 C,2 |[M:3/4] F,6 |] %10
V:3
 x8 | x8 | F,4 z4 | x8 |[M:2/4] x4 | x4 |[M:4/4] x8 | G,4 z4 | x8 |[M:3/4] x6 |] %10

